packages/ui-icons/svg/Line/apple.svg

<svg viewBox="0 0 1920 1920" version="1.1" xmlns="http://www.w3.org/2000/svg">
    <path d="M1380.66395,0 L1386.2108,52.8648075 C1400.1345,184.630623 1354.74095,331.565356 1264.97266,446.011438 C1263.61425,447.59625 1262.02944,448.728259 1260.78423,450.313071 C1275.72675,449.747067 1290.66926,448.615058 1306.17778,450.086669 C1373.8719,452.916691 1551.82367,478.72649 1668.19417,652.263428 L1668.19417,652.263428 L1699.77721,699.468192 L1652.45925,730.938034 C1611.70694,756.747833 1486.61997,849.68575 1488.31798,1024.01509 C1490.2424,1244.7568 1668.19417,1325.69542 1688.45713,1334.18548 L1688.45713,1334.18548 L1737.0203,1354.56164 L1720.71938,1404.82283 C1707.24847,1448.29196 1668.42057,1559.56842 1592.57599,1672.76929 C1520.24063,1780.53652 1430.35914,1914.79276 1278.33037,1917.62278 C1206.56101,1919.434 1160.71466,1897.81263 1118.71714,1879.36089 C1078.75723,1861.70155 1044.45736,1846.53263 987.630525,1846.53263 C927.520862,1846.53263 891.183382,1862.26755 849.072657,1880.6061 C809.565552,1897.81263 764.738007,1917.28318 702.590728,1919.8868 C699.760706,1920 696.930684,1920 694.327064,1920 C547.052729,1920 444.71914,1769.10324 376.572215,1668.69406 L376.572215,1668.69406 L371.385341,1660.95884 C200.971353,1404.05599 105.685923,985.769047 262.918539,707.165851 C349.517206,553.552267 507.092821,456.539119 674.177309,454.0487 C739.267811,453.143093 799.151072,473.51925 850.77067,493.895407 C859.600338,374.015683 916.653578,262.173221 975.857634,189.951064 C1061.8903,84.447851 1206.44781,7.24485585 1327.57275,2.26401745 L1327.57275,2.26401745 L1380.66395,0 Z M1297.91412,562.947939 C1224.22035,555.137079 1153.583,584.229703 1090.75652,609.586699 C1043.32535,628.717646 1002.45984,645.131773 964.537547,645.131773 C932.162097,645.131773 898.201836,634.151288 862.883163,620.340782 L862.883163,620.340782 L857.449522,619.887978 L857.22312,618.189965 C849.751862,615.133542 842.280605,612.190319 834.582945,609.133895 C785.000963,588.98414 730.551343,562.608337 676.101724,567.249573 C548.977144,569.173987 428.418214,644.112965 361.516499,762.86068 C216.619382,1019.48706 337.857516,1409.91687 470.302537,1605.07517 C540.71348,1708.88037 615.426056,1811.44036 698.062693,1806.79913 C739.041409,1805.10111 767.568029,1792.64902 803.905509,1776.9141 C850.77067,1756.42474 903.97508,1733.33176 987.630525,1733.33176 C1068.34275,1733.33176 1119.39634,1755.85873 1164.45029,1775.78209 C1201.69338,1792.30942 1232.59721,1806.23312 1276.17955,1804.42191 C1362.55181,1802.8371 1422.88788,1722.69088 1498.50606,1609.71641 C1548.08805,1535.79624 1579.78429,1463.00808 1597.78323,1414.4449 C1521.14624,1368.48535 1377.15473,1252.00165 1375.11711,1025.0339 C1373.4191,844.931313 1472.35666,730.37203 1540.72999,672.865987 C1455.37653,580.267673 1345.34528,564.985555 1297.91412,562.947939 Z M1274.82114,124.634161 C1198.29735,145.123519 1116.11352,197.082719 1063.58831,261.494016 L1063.58831,261.494016 L1063.47511,261.607217 C1016.94955,318.434055 967.48077,412.390779 962.38673,509.064324 C1047.06098,496.385826 1127.66,437.294971 1175.99678,376.053299 C1234.40843,301.680325 1269.3875,211.232828 1274.82114,124.634161 Z" stroke="none" stroke-width="1" fill-rule="evenodd"/>
</svg>

<svg viewBox="0 0 1920 1920" xmlns="http://www.w3.org/2000/svg">
    <path d="m1380.664 0 5.547 52.865c13.923 131.766-31.47 278.7-121.238 393.146-1.359 1.585-2.944 2.717-4.189 4.302 14.943-.566 29.885-1.698 45.394-.226 67.694 2.83 245.646 28.64 362.016 202.176l31.583 47.205-47.318 31.47c-40.752 25.81-165.839 118.748-164.141 293.077 1.924 220.742 179.876 301.68 200.14 310.17l48.562 20.377-16.3 50.26c-13.472 43.47-52.3 154.746-128.144 267.947-72.335 107.768-162.217 242.024-314.246 244.854-71.769 1.811-117.615-19.81-159.613-38.262-39.96-17.66-74.26-32.828-131.086-32.828-60.11 0-96.448 15.735-138.558 34.073-39.507 17.207-84.335 36.677-146.482 39.28-2.83.114-5.66.114-8.264.114-147.274 0-249.608-150.897-317.755-251.306l-5.187-7.735c-170.414-256.903-265.7-675.19-108.466-953.793 86.598-153.614 244.174-250.627 411.258-253.117 65.09-.906 124.974 19.47 176.594 39.846 8.83-119.88 65.883-231.722 125.087-303.944C1061.89 84.448 1206.448 7.245 1327.573 2.264L1380.664 0Zm-82.75 562.948c-73.694-7.81-144.331 21.282-207.157 46.639-47.432 19.13-88.297 35.545-126.22 35.545-32.375 0-66.335-10.98-101.654-24.791l-5.433-.453-.227-1.698c-7.471-3.056-14.942-6-22.64-9.056C785 588.984 730.55 562.608 676.102 567.25c-127.125 1.924-247.684 76.863-314.586 195.61-144.897 256.627-23.658 647.057 108.787 842.215 70.41 103.805 145.123 206.365 227.76 201.724 40.978-1.698 69.505-14.15 105.843-29.885 46.865-20.49 100.07-43.582 183.725-43.582 80.712 0 131.765 22.527 176.82 42.45 37.242 16.527 68.146 30.451 111.729 28.64 86.372-1.585 146.708-81.731 222.326-194.706 49.582-73.92 81.278-146.708 99.277-195.271-76.637-45.96-220.628-162.443-222.666-389.411-1.698-180.103 97.24-294.662 165.613-352.168-85.353-92.598-195.385-107.88-242.816-109.918Zm-23.093-438.314c-76.524 20.49-158.707 72.449-211.233 136.86l-.113.113c-46.525 56.827-95.994 150.784-101.088 247.457 84.674-12.678 165.273-71.769 213.61-133.01 58.411-74.374 93.39-164.821 98.824-251.42Z" fill-rule="evenodd"/>
</svg>
